X:17
T:Haste to the Wedding
M:6/8
Q:3/8=120
R:jig
K:D
A|"D"AFA A2f|"Em"ede fdB | "D"AFA AGF | "G"GFG EFG|
"D"AFA A2f|"Em"ede fdB| "D" AFA "A7"a2g|fdd d2::
a|"D"afa afa|"G"bgb bgb|"D"afa agf"Em"|gfg efg|
"D".a2z "Bm".f2z|"G"ede fdB|"D"AFA "A7"a2g|"D"fdd d2:|
